!!!COM:      Bach, Johann Sebastian
!!!CDT:      1685/03/31/-1750/07/28/
!!!OPR@@GER: Das wohltemperirte Clavier
!!!OVM@@GER: Band I
!!!OPR@ENG:  Well-Tempered Clavier
!!!OVM@ENG:  Book I
!!!OTL:      Prelude
!!!OKY:      E-flat major
!!!ONM:      no. 7
!!!SCT:      BWV 852
!!!OMV:      1
**kern	**kern	**kern	**kern
*clefF4	*clefF4	*clefG2	*clefG2
*k[b-e-a-]	*k[b-e-a-]	*k[b-e-a-]	*k[b-e-a-]
*E-:	*E-:	*E-:	*E-:
*M4/4	*M4/4	*M4/4	*M4/4
*met(c)	*met(c)	*met(c)	*met(c)
*MM88	*MM88	*MM88	*MM88
=1-	=1-	=1-	=1-
[1E-	2r	2ryy	16r
.	.	.	16g
.	.	.	16a-
.	.	.	16b-
.	.	.	16a-
.	.	.	16g
.	.	.	16f
.	.	.	16e-
.	16r	[2e-	[2dd-
.	16G	.	.
.	16A-	.	.
.	16B-	.	.
.	16A-	.	.
.	16G	.	.
.	16F	.	.
.	16E-	.	.
=2	=2	=2	=2
1E-_	[2A-	8e-]	16dd-]
.	.	.	16cc
.	.	8r	16dd-
.	.	.	16ee-
.	.	4r	16dd-
.	.	.	16cc
.	.	.	16b-
.	.	.	16a-
.	16A-]	[2a-	[2ff
.	16A-	.	.
.	16B-	.	.
.	16c	.	.
.	16B-	.	.
.	16A-	.	.
.	16G	.	.
.	16F	.	.
=3	=3	=3	=3
2E-]	[2d	8a-]	16ff]
.	.	.	16ddn
.	.	8r	16ee-
.	.	.	16ff
.	.	4r	16ee-
.	.	.	16dd
.	.	.	16cc
.	.	.	16b-
2r	16d]	[2b-	[2aa-
.	16d	.	.
.	16e-	.	.
.	16f	.	.
.	16e-	.	.
.	16d	.	.
.	16c	.	.
.	16B-	.	.
=4	=4	=4	=4
1ryy	[2e-	8b-]	16aa-]
.	.	.	16ff
.	.	8r	16gg
.	.	.	16aa-
.	.	4r	16gg
.	.	.	16ff
.	.	.	16ee-
.	.	.	16dd
.	16e-]	[2ee-	[2gg
.	16e-	.	.
.	16f	.	.
.	16g	.	.
.	16f	.	.
.	16e-	.	.
.	16d	.	.
.	16c	.	.
=5	=5	=5	=5
1ryy	16B-	16ee-]	16gg]
.	16c	16r	16ee-
.	16d	8r	16ff
.	16e-	.	16gg
.	16d	4r	16ff
.	16c	.	16ee-
.	16B-	.	16dd
.	16A-	.	16cc
.	16G	2cc	[2ccc
.	16E-	.	.
.	16F	.	.
.	16G	.	.
.	16F	.	.
.	16E-	.	.
.	16D	.	.
.	16C	.	.
=6	=6	=6	=6
1ryy	16F	8dd	16ccc]
.	16C	.	16aan
.	16D	8r	16bb-
.	16E-	.	16ccc
.	16D	4r	16bb-
.	16C	.	16aa
.	16BB-	.	16gg
.	16AAn	.	16ff
.	16D	2ryy	16bb-
.	16BB-	.	16aan
.	16C	.	16gg
.	16D	.	16ff
.	16C	.	16ee-
.	16BB-	.	16dd
.	16AAn	.	16cc
.	16GG	.	16b-
=7	=7	=7	=7
1C	16r	1ryy	[2ee-
.	16E-	.	.
.	16F	.	.
.	16G	.	.
.	16F	.	.
.	16E-	.	.
.	16D	.	.
.	16C	.	.
.	2An	.	16ee-]
.	.	.	16ee-
.	.	.	16ff
.	.	.	16gg
.	.	.	16ff
.	.	.	16ee-
.	.	.	16dd
.	.	.	16cc
=8	=8	=8	=8
*MM69	*MM69	*MM69	*MM69
[1BB-	1B-	1ryy	32dd
.	.	.	32cc
.	.	.	32dd
.	.	.	32ee-
.	.	.	32dd
.	.	.	32cc
.	.	.	32b-
.	.	.	32an
.	.	.	32b-
.	.	.	32a
.	.	.	32b-
.	.	.	32cc
.	.	.	32b-
.	.	.	32a-
.	.	.	32g
.	.	.	32f
.	.	.	32g
.	.	.	32f
.	.	.	32g
.	.	.	32a-
.	.	.	32g
.	.	.	32f
.	.	.	32e-
.	.	.	32d
.	.	.	32e-
.	.	.	32d
.	.	.	32e-
.	.	.	32f
.	.	.	32e-
.	.	.	32d
.	.	.	32c
.	.	.	32B-
=9	=9	=9	=9
1BB-_	1An	2ryy	32r
.	.	.	32c
.	.	.	32d
.	.	.	32e-
.	.	.	32f
.	.	.	32g
.	.	.	32an
.	.	.	32b-
.	.	.	32cc
.	.	.	32a
.	.	.	32f
.	.	.	32g
.	.	.	32a
.	.	.	32b-
.	.	.	32cc
.	.	.	32dd
.	.	2cc	[8ee-
.	.	.	32ee-]
.	.	.	64ff
.	.	.	64ee-
.	.	.	32dd
.	.	.	32ee-
.	.	.	8.ee-
.	.	.	16dd
=10	=10	=10	=10
*MM100	*MM100	*MM100	*MM100
4BB-]	4B-	4f	4dd
4r	2e-	4r	4r
4F	.	2r	2r
[4B-	4d	.	.
=11	=11	=11	=11
4B-]	2c	2r	1r
4A-	.	.	.
2G	4B-	4e-	.
.	4c	[4a-	.
=12	=12	=12	=12
4F	4d	4a-]	4r
2E-	4e-	2g	4b-
.	4d-	.	2ee-
[4A-	4c	[4f	.
=13	=13	=13	=13
4A-]	2B-	4f]	4dd
4G	.	2g	2ee-
2c	2e-	.	.
.	.	4cc	[4aa-
=14	=14	=14	=14
4d	4f	2b-	4aa-]
4e-	2e-	.	2gg
2A-	.	2cc	.
.	[4a-	.	8ff
.	.	.	8ee-
=15	=15	=15	=15
[1B-	4a-]	[2b-	4dd
.	4g	.	2ee-
.	2f	4.b-]	.
.	.	.	4dd
.	.	8a-	.
=16	=16	=16	=16
4B-]	2c	4g	4een
4A-	.	4cc	2ff
4G	4d	4bn	.
[4c	4e-	8cc	4ee-
.	.	8b-	.
=17	=17	=17	=17
4c]	8f	4a-	4dd
.	8e-	.	.
4B-	4d	4b-	2gg
4c	4e-	[2a-	.
4d	4f	.	[4ff
=18	=18	=18	=18
4.G	2B-	4a-]	4ff]
.	.	4g	2ee-
8A-	.	.	.
4B-	[2B-	4f	.
4BB-	.	8g	[4dd
.	.	8a-	.
=19	=19	=19	=19
2.E-	4B-]	2g	4dd]
.	8e-	.	8cc
.	8d	.	8b-
.	4c	[2f	4an
4D	8d	.	[4b-
.	8c	.	.
=20	=20	=20	=20
2G	8B-	4f]	4b-]
.	8An	.	.
.	4B-	16e-	2ee-
.	.	16dd	.
.	.	16cc	.
.	.	16b-	.
[2F	4c	4an	.
.	8d	[4b-	4dd
.	8e-	.	.
=21	=21	=21	=21
2F]	4.f	4b-]	2cc
.	.	2a-X	.
.	8e-	.	.
[4G	8d	.	2b-
.	8B-	.	.
16G]	[4e-	[4g	.
16F	.	.	.
16E-	.	.	.
16D	.	.	.
=22	=22	=22	=22
4C	4e-]	4g]	2a-
4D	[2.B-	2f	.
[4E-	.	.	[2g
16E-]	.	8e-	.
16D-	.	.	.
16C	.	8d-	.
16BB-	.	.	.
=23	=23	=23	=23
2AA-	4B-]	2.c	4g]
.	8A-	.	8f
.	8G	.	8e-
2BB-	4F	.	2dn
.	8G	[4B-	.
.	8F	.	.
=24	=24	=24	=24
2C	4.E-	4B-]	2.e-
.	.	4An	.
.	8F	.	.
2BB-	4G	[2B-	.
.	8F	.	8d
.	8E-	.	8c
=25	=25	=25	=25
*MM88	*MM88	*MM88	*MM88
4BB-	4F	16B-]	4d
.	.	16b-	.
.	.	16cc	.
.	.	16dd	.
2E-	4r	16cc	4r
.	.	16b-	.
.	.	16an	.
.	.	16g	.
.	2r	8f	2r
.	.	16g	.
.	.	16a	.
4D	.	16b-	.
.	.	16a	.
.	.	16g	.
.	.	16f	.
=26	=26	=26	=26
2G	1ryy	16e-	2r
.	.	16d	.
.	.	16c	.
.	.	16B-	.
.	.	8e-	.
.	.	8e-	.
2F	.	4e-	16r
.	.	.	16a-
.	.	.	16b-
.	.	.	16cc
.	.	4d	16b-
.	.	.	16a-
.	.	.	16g
.	.	.	16f
=27	=27	=27	=27
4.E-	4E-	4e-	16g
.	.	.	16ee-
.	.	.	16ff
.	.	.	16gg
.	2A-	4r	16ff
.	.	.	16ee-
8F	.	.	16dd
.	.	.	16cc
8G	.	2r	8b-
8F	.	.	16cc
.	.	.	16dd
8E-	4G	.	16ee-
.	.	.	16dd
8D	.	.	16cc
.	.	.	16b-
=28	=28	=28	=28
16C	2c	1ryy	16a-
16E-	.	.	16g
16F	.	.	16f
16G	.	.	16e-
16F	.	.	8a-
16E-	.	.	.
16D	.	.	8a-
16C	.	.	.
16E-	[4B-	.	4a-
16D	.	.	.
16C	.	.	.
16BB-	.	.	.
8E-	16B-]	.	[4g
.	16d	.	.
8D	16e-	.	.
.	16f	.	.
=29	=29	=29	=29
[4C	16e-	1ryy	4g]
.	16d	.	.
.	16c	.	.
.	16B-	.	.
16C]	8e-	.	4an
16C	.	.	.
16D	8c	.	.
16E-	.	.	.
16D	[4f	.	8b-
16C	.	.	.
16BB-	.	.	8cc
16AAn	.	.	.
8BB-	16f]	.	[4dd
.	16f	.	.
8B-	16g	.	.
.	16a-	.	.
=30	=30	=30	=30
2E-	16g	4B-	4dd_
.	16f	.	.
.	16e-	.	.
.	16d	.	.
.	4g	2e-	16dd]
.	.	.	16dd
.	.	.	16cc
.	.	.	16b-
16r	[2f	.	8an
16F	.	.	.
16G	.	.	16b-
16An	.	.	16cc
16B-	.	4d	[4dd
16A	.	.	.
16G	.	.	.
16F	.	.	.
=31	=31	=31	=31
16E-	4f]	2g	4dd_
16D	.	.	.
16C	.	.	.
16BB-	.	.	.
8E-	8e-	.	16dd]
.	.	.	16cc
8E-	8d	.	16dd
.	.	.	16ee-
4E-	4c	16r	4ff
.	.	16an	.
.	.	16b-	.
.	.	16cc	.
4D	[4d	16b-	4r
.	.	16a	.
.	.	16g	.
.	.	16f	.
=32	=32	=32	=32
[2G	16d]	[2b-	16r
.	16d	.	16ff
.	16e-	.	16gg
.	16f	.	16aa-
.	16e-	.	16gg
.	16d	.	16ff
.	16c	.	16ee-
.	16B-	.	16dd
16G]	[2c	16b-]	[2ee-
16G	.	16b-	.
16An	.	16cc	.
16B-	.	16dd	.
16A	.	16cc	.
16G	.	16b-	.
16F	.	16an	.
16E-	.	16g	.
=33	=33	=33	=33
2F	2c_	[2an	16ee-]
.	.	.	16ee-
.	.	.	16ff
.	.	.	16gg
.	.	.	16ff
.	.	.	16ee-
.	.	.	16dd
.	.	.	16cc
16r	4c]	8a]	[2dd
16F#	.	.	.
16G	.	8d	.
16An	.	.	.
16G	[4B-	8g	.
16Fn	.	.	.
16E-	.	8f	.
16D	.	.	.
=34	=34	=34	=34
2C	16B-]	2e-	4dd]
.	16G	.	.
.	16An	.	.
.	16B-	.	.
.	16A	.	[4cc
.	16G	.	.
.	16F#	.	.
.	16G	.	.
2D	8F#	4d	8cc]
.	4G	.	8b-
.	.	4c	4an
.	8F#	.	.
=35	=35	=35	=35
4GG	16r	4B-	4g
.	16G	.	.
.	16A-X	.	.
.	16B-	.	.
4r	16A-	2e-	4r
.	16G	.	.
.	16F	.	.
.	16E-	.	.
16r	4B-	.	4f
16D	.	.	.
16E-	.	.	.
16F	.	.	.
16E-	4r	4d	[4b-
16D	.	.	.
16C	.	.	.
16BB-	.	.	.
=36	=36	=36	=36
4En	16r	4g	4b-]
.	16B-	.	.
.	16c	.	.
.	16d-	.	.
2F	16c	[4f	4an
.	16B-	.	.
.	16A-	.	.
.	16G	.	.
.	8A-	16f]	[2dd-
.	.	16f	.
.	16B-	16g	.
.	16c	16a-	.
4BB-	8B-	16g	.
.	.	16f	.
.	8A-	16en	.
.	.	16f	.
=37	=37	=37	=37
2C	4G	2en	16dd-]
.	.	.	16b-
.	.	.	16cc
.	.	.	16dd-X
.	[2A-	.	16cc
.	.	.	16b-
.	.	.	16a-
.	.	.	16g
2D-	.	16r	[2f
.	.	16e-	.
.	.	16d-X	.
.	.	16c	.
.	16A-]	[4B-	.
.	16A-	.	.
.	16G	.	.
.	16F	.	.
=38	=38	=38	=38
2C	2G	16B-]	4f]
.	.	16B-	.
.	.	16c	.
.	.	16d-	.
.	.	16c	4en
.	.	16B-	.
.	.	16A-	.
.	.	16G	.
16r	4F	4A-	4f
16FF	.	.	.
16GG	.	.	.
16AA-	.	.	.
16GG	4r	4r	[4cc
16FF	.	.	.
16EE-	.	.	.
16DD	.	.	.
=39	=39	=39	=39
2GG	4D	16r	4cc]
.	.	16f	.
.	.	16g	.
.	.	16a-	.
.	2G	16g	4bn
.	.	16f	.
.	.	16e-	.
.	.	16d	.
2C	.	16c	[2ee-
.	.	16g	.
.	.	16a-	.
.	.	16b-	.
.	4E-	16a-	.
.	.	16g	.
.	.	16f	.
.	.	16e-	.
=40	=40	=40	=40
2.F	2A-	2f	16ee-]
.	.	.	16ee-
.	.	.	16ff
.	.	.	16gg
.	.	.	16ff
.	.	.	16ee-
.	.	.	16dd
.	.	.	16cc
.	4G	4d	16bn
.	.	.	16ff
.	.	.	16gg
.	.	.	16aa-
4E-	[4c	[4e-	16gg
.	.	.	16ff
.	.	.	16ee-
.	.	.	16dd
=41	=41	=41	=41
8A-	4.c]	8e-]	16cc
.	.	.	16bn
8F	.	8a-	16cc
.	.	.	16dd
4G	.	8g	8.dd
.	8Bn	8f	.
.	.	.	16cc
16r	4c	4e-	4cc
16C	.	.	.
16D-	.	.	.
16E-	.	.	.
16D-	4r	[4a-	4r
16C	.	.	.
16BB-	.	.	.
16AA-	.	.	.
=42	=42	=42	=42
2E-	4B-	4a-]	16r
.	.	.	16b-
.	.	.	16cc
.	.	.	16dd-
.	2e-	4g	16cc
.	.	.	16b-
.	.	.	16a-
.	.	.	16g
2A-	.	4cc	8f
.	.	.	16g
.	.	.	16a-
.	4d	[4b-	16b-
.	.	.	16a-
.	.	.	16g
.	.	.	16f
=43	=43	=43	=43
[4G	2g	1b-_	16e-
.	.	.	16d
.	.	.	16c
.	.	.	16B-
16G]	.	.	8ee-
16F	.	.	.
16G	.	.	8ee-
16A-	.	.	.
16B-	[2f	.	4ee-
16A-	.	.	.
16B-	.	.	.
16c	.	.	.
16B-	.	.	4dd
16A-	.	.	.
16G	.	.	.
16F	.	.	.
=44	=44	=44	=44
2En	16f]	2b-_	2.gg
.	16B-	.	.
.	16c	.	.
.	16d-	.	.
.	16c	.	.
.	16B-	.	.
.	16A-	.	.
.	16G	.	.
[2A-	2c	16b-]	.
.	.	16b-	.
.	.	16cc	.
.	.	16dd-	.
.	.	16cc	4ff
.	.	16b-	.
.	.	16a-	.
.	.	16g	.
=45	=45	=45	=45
*	*staff:4	*	*
*	*clefG2	*	*
16A-]	4d	4f	4bn
16F	.	.	.
16G	.	.	.
16A-	.	.	.
16G	8e-	8g	8cc
16F	.	.	.
16E-	8f	8bn	8dd
16D	.	.	.
16C	8g	4cc	8ee-
16BB-	.	.	.
16C	8g	.	8een
16D-	.	.	.
16C	8a-	8dd	8ff
16BB-	.	.	.
16AA-	8b-	8een	8gg
16GG	.	.	.
=46	=46	=46	=46
4FF	4cc	16ff	[2aa-
.	.	16ee-X	.
.	.	16ff	.
.	.	16gg	.
2BB-	4r	16ff	.
.	.	16ee-	.
.	.	16dd	.
.	.	16cc	.
.	2r	[2dd	16aa-]
.	.	.	16aa-
.	.	.	16bb-
.	.	.	16ccc
4GG	.	.	16bb-
.	.	.	16aa-
.	.	.	16gg
.	.	.	16ff
=47	=47	=47	=47
*	*staff:1	*	*
*	*clefF4	*	*
2C	4E-	16dd]	2ee-
.	.	16b-	.
.	.	16cc	.
.	.	16dd-	.
.	2A-	16cc	.
.	.	16b-	.
.	.	16a-	.
.	.	16g	.
8D	.	8f	[2b-
8BB-	.	16g	.
.	.	16a-	.
8E-	4G	16b-	.
.	.	16a-	.
8D	.	16g	.
.	.	16f	.
=48	=48	=48	=48
4.C	[2c	16e-	4b-_
.	.	16d	.
.	.	16c	.
.	.	16B-	.
.	.	8e-	16b-]
.	.	.	16a-
8BB-	.	8e-	16b-
.	.	.	16cc
4AAn	16c]	4e-	4f
.	16An	.	.
.	16B-	.	.
.	16c	.	.
4BB-	16B-	4d	4f
.	16A-	.	.
.	16G	.	.
.	16F	.	.
=49	=49	=49	=49
16BB-	4G-	2c	2e-
16AAn	.	.	.
16BB-	.	.	.
16C	.	.	.
16BB-	4F	.	.
16AA	.	.	.
16GGn	.	.	.
16FF	.	.	.
4BB-	4F	16r	4d
.	.	16f	.
.	.	16g	.
.	.	16a-	.
[4E-	4r	16g	4r
.	.	16f	.
.	.	16e-	.
.	.	16d	.
=50	=50	=50	=50
4E-]	1ryy	8c	[2a-
.	.	16d	.
.	.	16e-	.
4D	.	16f	.
.	.	16e-	.
.	.	16d	.
.	.	16c	.
[4G	.	16B-	16a-]
.	.	16A-	16f
.	.	16G	16g
.	.	16F	16a-
8G]	.	8B-	16g
.	.	.	16f
8F	.	8B-	16e-
.	.	.	16d
=51	=51	=51	=51
4En	1ryy	16B-	[4c
.	.	16G	.
.	.	16An	.
.	.	16B-	.
8F	.	[4A	16c]
.	.	.	16c
8E-	.	.	16d
.	.	.	16e-
[2D	.	16A]	[4f
.	.	16A	.
.	.	16Bn	.
.	.	16c	.
.	.	[4B	16f]
.	.	.	16e-
.	.	.	16f
.	.	.	16g
=52	=52	=52	=52
16D]	1ryy	8Bn]	[2a-
16D	.	.	.
16E-	.	8Bn	.
16F	.	.	.
16E-	.	8c	.
16D	.	.	.
16C	.	8d	.
16BBn	.	.	.
16C	.	[2e-	8a-]
16BB	.	.	.
16C	.	.	8g
16D	.	.	.
16C	.	.	8a-
16BB-	.	.	.
16AA-	.	.	8b-
16GG	.	.	.
=53	=53	=53	=53
*	*staff:11	*	*
2AA-	4C	16e-]	[4cc
.	.	16e-	.
.	.	16f	.
.	.	16g	.
.	2F	4f	16cc]
.	.	.	16ee-
.	.	.	16dd
.	.	.	16cc
16r	.	2g	8bn
16GG	.	.	.
16AAn	.	.	16cc
16BBn	.	.	16dd
[4C	4E-	.	16ee-
.	.	.	16dd
.	.	.	16cc
.	.	.	16b-
=54	=54	=54	=54
16C]	2A-	2r	16a-
16C	.	.	16g
16D	.	.	16f
16E-	.	.	16e-
8F	.	.	16d
.	.	.	16dd
8F	.	.	16ee-
.	.	.	16ff
4F	2G	4d	8bn
.	.	.	16cc
.	.	.	16dd
4E-	.	[4g	16cc
.	.	.	16b-
.	.	.	16a-
.	.	.	16g
=55	=55	=55	=55
2A-	16r	4g]	[2cc
.	16c	.	.
.	16d-	.	.
.	16e-	.	.
.	16d-	4f	.
.	16c	.	.
.	16B-	.	.
.	16A-	.	.
16r	2G	[2b-	8cc]
16En	.	.	.
16F	.	.	8dd
16G	.	.	.
16F	.	.	4een
16E	.	.	.
16Dn	.	.	.
16C	.	.	.
=56	=56	=56	=56
2.F	4r	8b-]	16ff
.	.	.	16cc
.	.	8a-	16dd-
.	.	.	16ee-
.	16r	2dd-	16dd-X
.	16A-	.	16cc
.	16B-	.	16b-
.	16c	.	16a-
.	16B-	.	4g
.	16A-	.	.
.	16G	.	.
.	16F	.	.
16E-	8G	4cc	4r
16C	.	.	.
16D-	8r	.	.
16E-	.	.	.
=57	=57	=57	=57
16D-	1r	2ff	16r
16C	.	.	16aa-
16BB-	.	.	16bb-
16AA-	.	.	16ccc
8D-	.	.	16bb-
.	.	.	16aa-
8D-	.	.	16gg
.	.	.	16ff
4D-	.	[4ee-	16aa-
.	.	.	16gg
.	.	.	16ff
.	.	.	16ee-
4C	.	16ee-]	[4aa-
.	.	16ee-	.
.	.	16ff	.
.	.	16gg-	.
=58	=58	=58	=58
4D-	4r	16ff	4aa-]
.	.	16ee-	.
.	.	16dd-	.
.	.	16cc	.
4E-	16r	4b-	4ggn
.	16B-	.	.
.	16c	.	.
.	16d-X	.	.
4A-	4c	16r	8aa-
.	.	16b-	.
.	.	16cc	8ee-
.	.	16dd-X	.
4F	4r	16cc	[4aa-
.	.	16b-	.
.	.	16a-	.
.	.	16g	.
=59	=59	=59	=59
8B-	16r	8f	4aa-]
.	16dn	.	.
8r	16e-	16g	.
.	16f	16a-	.
4r	4e-	16b-	4gg
.	.	16a-	.
.	.	16g	.
.	.	16f	.
2r	16r	8e-	2ccc
.	16c	.	.
.	16d-	16f	.
.	16e-	16g	.
.	16d-	8a-	.
.	16c	.	.
.	16B-	8a-	.
.	16A-	.	.
=60	=60	=60	=60
1r	2e-	16a-	[4bb-
.	.	16g	.
.	.	16a-	.
.	.	16b-	.
.	.	2cc	16bb-]
.	.	.	16bb-
.	.	.	16aa-
.	.	.	16gg
.	2d	.	8ff
.	.	.	16gg
.	.	.	16aa-
.	.	4b-	16gg
.	.	.	16ff
.	.	.	16ee-
.	.	.	16dd
=61	=61	=61	=61
2r	16r	2ee-	8ee-
.	16c	.	.
.	16d-	.	16ff
.	16e-	.	16gg
.	16d-	.	8aa-
.	16c	.	.
.	16B-	.	[8aa-
.	16A-	.	.
4BB-	2B-	4dd	16aa-]
.	.	.	16gg
.	.	.	16aa-
.	.	.	16bb-
[4E-	.	4ee-	16aa-
.	.	.	16gg
.	.	.	16ff
.	.	.	16ee-
=62	=62	=62	=62
4E-]	4A-	4cc	8ff
.	.	.	16gg
.	.	.	16aa-
4D	16r	4r	16bb-
.	16F	.	16aa-
.	16G	.	16gg
.	16A-	.	16ff
[2G	4B-	4r	16ee-
.	.	.	16dd
.	.	.	16cc
.	.	.	16b-
.	16r	16r	8ee-
.	16B-	16g	.
.	16c	16a-	8ee-
.	16d-	16b-	.
=63	=63	=63	=63
4G]	16c	16a-	4ee-
.	16B-	16g	.
.	16A-	16f	.
.	16G	16e-	.
16r	[4A-	[4f	16r
16G	.	.	16dd
16F	.	.	16ee-
16E-	.	.	16ff
8D	8A-]	16f]	[2b-
.	.	16f	.
16E-	16G	16g	.
16F	16F	16a-	.
16E-	[4G	16g	.
16D	.	16f	.
16C	.	16e-	.
16BB-	.	16d-	.
=64	=64	=64	=64
2AA-	16G]	4c	4b-]
.	16E-	.	.
.	16F	.	.
.	16G	.	.
.	16F	2f	2a-
.	16E-	.	.
.	16D	.	.
.	16C	.	.
16DD	16BB-	.	.
16r	16A-	.	.
8r	16B-	.	.
.	16c	.	.
4E-	16B-	4e-	4g
.	16A-	.	.
.	16G	.	.
.	16F	.	.
=65	=65	=65	=65
16r	4E-	2.a-	2cc
16C	.	.	.
16D-	.	.	.
16E-	.	.	.
16D-	4r	.	.
16C	.	.	.
16BB-	.	.	.
16AA-	.	.	.
16E-	2r	.	4b-
16Dn	.	.	.
16C	.	.	.
16BB-	.	.	.
16A-	.	4g	[4ee-
16G	.	.	.
16F	.	.	.
16E-	.	.	.
=66	=66	=66	=66
*	*staff:4	*	*
*	*clefG2	*	*
[1B-	16r	4f	4ee-]
.	16c	.	.
.	16d	.	.
.	16e-	.	.
.	16f	2b-	4dd
.	16a-	.	.
.	16g	.	.
.	16f	.	.
.	16e-	.	2gg-
.	16f	.	.
.	16e-	.	.
.	16d	.	.
.	16c	4an	.
.	16e-	.	.
.	16d	.	.
.	16c	.	.
=67	=67	=67	=67
16B-]	4a-	4dd	4ff
16F	.	.	.
16E-	.	.	.
16D	.	.	.
16E-	4g	4b-	[4ee-
16F	.	.	.
16G	.	.	.
16A-	.	.	.
2BB-	2f	4.b-	4ee-]
.	.	.	4dd
.	.	8a-	.
=68	=68	=68	=68
*	*staff:1	*	*
*	*clefF4	*	*
[1E-	4E-	16g	2ee-
.	.	16b-	.
.	.	16cc	.
.	.	16dd-	.
.	2A-	16cc	.
.	.	16b-	.
.	.	16a-	.
.	.	16g	.
.	.	8f	4ddn
.	.	16g	.
.	.	16a-	.
.	4G	16b-	[4dd-
.	.	16a-	.
.	.	16g	.
.	.	16f	.
=69	=69	=69	=69
1E-_	2c	4e-	16dd-]
.	.	.	16b-
.	.	.	16cc
.	.	.	16dd-
.	.	[4a-	16cc
.	.	.	16b-
.	.	.	16cc
.	.	.	16a-
.	2c-	16a-]	2ddn
.	.	16a-	.
.	.	16b-	.
.	.	16cc-	.
.	.	16b-	.
.	.	16a-	.
.	.	16g	.
.	.	32a-	.
.	.	32f	.
=70	=70	=70	=70
1E-]	1B-	1g;y	1ee-;
==	==	==	==
*-	*-	*-	*-
!!!AFR:  prelude
!!!EFL:  13/96
!!!END:  1994/01/12/
!!!VID:  757756931 Bach, BWV 852-01
!!!AST:  Baroque
!!!OCY:  Deutschland
!!!ODT:  1722///
!!!PDT:  1801///
!!!EED:  Walter Hewlett
!!!ENC:  Walter Hewlett
!!!YOR:  Bach Gesellschaft Edition xiv
!!!AFT:  enhanced SCORE
!!!RDT:  2011/10/07/ by Andreas Kornstaedt using massScr2hmd
!!!SCA1: Thematisch-systematisches Verzeichnis der musikalischen Werke 
!!!SCA2: Johann Sebastian Bach: Bach-Werke-Verzeichnis (Schmieder)
!!!YEC1: Copyright 1994, 2000 Center for Computer Assisted Research 
!!!YEC2: in the Humanities
!!!YEM1: Rights to all derivative editions reserved.
!!!YEM2: Refer to licensing agreement for further details.
!!!YEN:  United States of America
!!!ref:  @{OTL}, @{SCT}
!!muse2ps: T^@{OTL} @{ONM} in @{OKY}^C^J.S. Bach\n@{SCT}-@{OMV}^
!!muse2ps: u^@{OPR@ENG}, @{OVM@ENG}^j
